X:1
T:Title
%%score { ( 1 4 ) | ( 2 3 ) }
L:1/8
Q:1/4=100
M:4/4
K:C
V:1 treble nm="Grand Piano"
V:4 treble 
V:2 bass 
V:3 bass 
V:1
 [EG]2 [Ec]2 B2 A2 | F2 A2 [EG]4 | [CE]2 [FA]2 [EG]2 [CE]2 | [B,D]2 [B,G]2 [CE]4 | %4
w: G.~F.~Root * * *||||
 [EG]2 [Ec]2 B2 A2 | F2 A2 [EG]4 | E2 [FA]2 [EG]2 [Cc]2 | [CE]2[K:bass] [F,B,D]2 [E,C]4 | %8
w: ||||
 [G,B,D]2 [G,CE]2 [G,DF]4 | [G,CE]2 [G,DF]2 [G,EG]4 | [A,CF]2 [A,CG]2 [CFA]2 [CAc]2 | %11
w: |||
 [DGB]2 [C^FA]2 [B,G]4 | [Ec]2 [EG]2 A4 | G2 C2 F4 | E2 [FA]2 [EG]2 [Cc]2 | %15
w: ||||
 [CE]2[K:bass] [F,B,D]2 [E,C]4 | [Ge]2 [Ec]2 B2 A2 | [G,CG]6 [F,A,CF]2 | [G,CE]2 C2 B,2- [B,D]2 | %19
w: ||||
 C6 z2 |] %20
w: |
V:2
 [C,C]2 [C,C]2[K:treble] [G,DF]2 [G,DF]2 | [G,B,D]2 [G,B,F]2[K:bass] [C,C]4 | %2
 [C,G,]2 [C,C]2 [C,C]2 [E,G,]2 | [G,,G,]2 [G,,G,]2 [C,G,]4 | %4
 [C,C]2 [C,C]2[K:treble] [G,DF]2 [G,DF]2 | [G,B,D]2 [G,B,F]2[K:bass] [C,C]4 | %6
 [C,C]2 [C,C]2 [C,C]2 G,-[F,G,] | G,2 G,,2 C,4 | G,,2 G,,2 G,,4 | C,2 C,2 C,4 | F,2 F,2 F,2 F,2 | %11
 D,2 D,2 z2 F2 | [C,C]2 [C,C]2 [F,CF]4 | [E,C]2 [E,G,]2 [D,G,B,]4 | z4 z2 G,2 | G,2 G,,2 C,4 | %16
 [C,,C,]4 [F,,F,]4 | [E,,E,]6 F,,2 | z2 E,2 z2 F,2 | [C,E,]6 z2 |] %20
V:3
 x4[K:treble] x4 | x4[K:bass] x4 | x8 | x8 | x4[K:treble] x4 | x4[K:bass] x4 | z4 z2 .E,2 | x8 | %8
 x8 | x8 | x8 | z4 G,4 | x8 | x8 | [C,G,C]2 [C,C]2 [C,C]2 E,F, | x8 | x8 | x8 | G,,4 G,,4 | x8 |] %20
V:4
 x8 | x8 | x8 | x8 | x8 | x8 | x8 | x2[K:bass] x6 | x8 | x8 | x8 | x8 | x8 | x8 | x8 | %15
 x2[K:bass] x6 | z4 [CF]4 | x8 | z4 [G,E]2 z2 | x8 |] %20

